icons/mobile/24/svg/night-mode-fill-24.svg

<svg width="24" height="24" viewBox="0 0 24 24" fill="none" xmlns="http://www.w3.org/2000/svg">
<path d="M10.2914 4.04488C10.6843 3.93308 11.097 4.03733 11.3939 4.32222C11.6938 4.61013 11.8159 5.02187 11.7211 5.42574C11.5881 5.99274 11.5199 6.57244 11.5199 7.14644C11.5201 10.8083 14.1273 13.9634 17.7172 14.6474C18.221 14.7613 18.7298 14.821 19.2435 14.831C19.6594 14.838 20.0297 15.057 20.2348 15.4199C20.4378 15.7769 20.4359 16.2026 20.2309 16.5566C19.8989 17.1324 19.5002 17.6694 19.0453 18.1523C19.0363 18.1643 19.026 18.1755 19.016 18.1855C17.359 20.0014 15.0768 20.999 12.6478 20.999L12.6488 21C12.3409 20.9999 12.032 20.9841 11.7191 20.9521C7.54814 20.5181 4.23511 17.0251 4.0121 12.8261C3.7961 8.76013 6.3784 5.14888 10.2914 4.04488Z" fill="black"/>
</svg>

<!-- This Source Code Form is subject to the terms of the Mozilla Public
   - License, v. 2.0. If a copy of the MPL was not distributed with this
   - file, You can obtain one at http://mozilla.org/MPL/2.0/. -->
<svg xmlns="http://www.w3.org/2000/svg" width="24" height="24" fill="none" viewBox="0 0 24 24">
    <path fill="#000" d="M10.291 4.045a1.13 1.13 0 0 1 1.103.277c.3.288.422.7.327 1.104a7.6 7.6 0 0 0-.201 1.72 7.64 7.64 0 0 0 6.197 7.501 7.6 7.6 0 0 0 1.527.184c.415.007.786.226.99.589a1.13 1.13 0 0 1-.003 1.137 8.6 8.6 0 0 1-1.215 1.629 8.56 8.56 0 0 1-6.368 2.813V21q-.46 0-.929-.048c-4.17-.434-7.484-3.927-7.707-8.126a8.6 8.6 0 0 1 6.28-8.781" />
</svg>
